apps/mobile/assets/icons/phosphor/compass.svg

<svg
  height="32"
  viewBox="0 0 256 256"
  width="32"
  xmlns="http://www.w3.org/2000/svg"
>
  <path
    d="m128 24a104 104 0 1 0 104 104 104.11 104.11 0 0 0 -104-104zm0 192a88 88 0 1 1 88-88 88.1 88.1 0 0 1 -88 88zm44.42-143.16-64 32a8.05 8.05 0 0 0 -3.58 3.58l-32 64a8 8 0 0 0 7.16 11.58 8.1 8.1 0 0 0 3.58-.84l64-32a8.05 8.05 0 0 0 3.58-3.58l32-64a8 8 0 0 0 -10.74-10.74zm-34.42 65.16-40.11 20.11 20.11-40.11 40.15-20.07z"
  />
</svg>

<svg xmlns="http://www.w3.org/2000/svg" width="32" height="32" fill="#000000" viewBox="0 0 256 256"><path d="M128,24A104,104,0,1,0,232,128,104.11,104.11,0,0,0,128,24Zm0,192a88,88,0,1,1,88-88A88.1,88.1,0,0,1,128,216ZM172.42,72.84l-64,32a8.05,8.05,0,0,0-3.58,3.58l-32,64A8,8,0,0,0,80,184a8.1,8.1,0,0,0,3.58-.84l64-32a8.05,8.05,0,0,0,3.58-3.58l32-64a8,8,0,0,0-10.74-10.74ZM138,138,97.89,158.11,118,118l40.15-20.07Z"></path></svg>
